X:21
T:Adele Blanc-Sec - scottish/schottisch/schottische
R:Scottish
C:Frdric Paris
Z:abc transcription Simon Wascher
N:please mail errors to: simon.wascher@chello.at
Z:Transcrit et/ou corrig par Michel BELLON - 2005-09-11
Z:Pour toute observation mailto:galouvielle@free.fr
M:2/4
L:1/16
K:Dm
V:1
FEFA GFGB|A2E2 E2FG|A3c BABc|A4A4|
FEFA GFGB|A2E2 E2FG|A2GF EFGA|1D4-D4:|2D2EF GABc||
|:d2cB ABcd|GABcA4|B2AG E3B|AGEG F2D2|
d2cB ABcd|GABcA4|B2AG E3B|AGEFD4:|
V:2
x8 | x8 | x8 | x8 | x8 | x8 | x8 | x8 :| x8 || 
|: x8 | x8 | x8 | x8 | x8 | x8 | x8 | x8 :|
%%footer $D   Galouvielle-MBe 2006 \nScottish (France)
